!! 00000] TT[WS
!!!OTL: Xiu hebao
!!!ARE: Asia, China, Shanxi Linxian
!! Ethnic Group: Han
!! WII, 55 (1)
!!!SCT: J0475
!!!YEM: Copyright 1995, estate of Helmut Schaffrath.
**kern
*ICvox
*Ivox
*M2/4
*k[f#]
*G:
{4dd
8b
8a
=1
4dd
8b
8a
=2
4dd
8b
8a
=3
8e
8g
4a}
=4
{8a
8dd
8a
8dd
=5
8a
8dd
8a
8g
=6
8.e
16d
8e
8g
=7
2d}
=8
{8dd
8b
8a
8g
=9
8e
8d
8e
8g
=10
2d}
==
!!!AGN: Xiaodiao. Qingge, Sichun
!!!ONB: ESAC (Essen Associative Code) Database: CHINA
!!!AMT: simple duple
!!!AIN: vox
!!!EED: Helmut Schaffrath
!!!EEV: 1.0
*-
